!!!id: 17xx:790
!!!COM: Anonim
!!!OTL: Keyboard piece
!!!PDT:
!!!SMS-siglum: PL-SA
!!!SMS-shelfmark: L 1636
!!!NIFC-rismID: 1001077031
!!!URL-scan: http://repozytorium.nifc.pl/skany/pl-sa-nut--l1636
!!!ONB-nifc: 29v-30r, skan 0033, p. 1-7
!!!SMS-variant:
!!!SMS-altvar:
**kern	**kern
*part1	*part1
*staff2	*staff1
*I"Organo	*
*I'Org.	*
*group1	*group1
*clefF4	*clefC1
*k[]	*k[]
*M2/2	*M2/2
*met(c|)	*met(c|)
=1	=1
*2\right	*2\right
1ryy	2a\
.	4g#X/
.	4gn/
=2	=2
1ryy	4f#X/
.	4fn/
.	2e/
=3	=3
*	*^
1ryy	2dd/	8r
!	!	!LO:TX:a:t=P:problem:8\right:global
.	.	8c\L
.	.	8f\
.	.	8d\J
.	4cc#X/	8e\L
!	!	!LO:TX:a:t=P:problem:16\right:global
.	.	16f\L
.	.	16g\JJ
!	!	!LO:TX:a:t=P:problem:4\right:global
.	4ccn/	4a\
=4	=4	=4
1ryy	4b/	8d\L
.	.	16e\L
.	.	16f\JJ
.	4b-X/	4.g\
.	2a/	.
.	.	16f\LL
.	.	16e\JJ
.	.	8f\L
.	.	8d\J
=5	=5	=5
*2\right	*2\right	*2\right
2A\	1e	4d\
.	.	4c\
!LO:TX:a:t=P:problem:4\right:global	!	!
4G#X\	.	2B\
4Gn\	.	.
!!LO:LB:g=original
=6	=6	=6
4F#X\	4e/	2A\
4Fn\	4d/	.
2E\	4d/	2G\
.	4c#X/	.
*	*v	*v
=7	=7
*clefC4	*
*^	*
8A/L	4D\	4f/
8d/J	.	.
8c/L	4E\	4g/
8B/J	.	.
!	!LO:TX:a:t=P:problem:8\right:global	!
2ryy	8F\L	4a/
.	8B-X\	.
.	8G\	4b-X/
.	8B-\J	.
*v	*v	*
=8	=8
8A\L	4cc\
8e\	.
8d\	8b-X\L
8c\J	8a\J
8.B-X\L	8g/L
.	8f/J
16F\Jk	.
8G\L	4e/
8A\J	.
=9	=9
*^	*
4d/	8D\L	4r
.	8E\J	.
4A/	4F\	4aa\
4B/	2G\	4gg#X\
4e/	.	4ggn\
=10	=10	=10
2ryy	4A\	4ff#X\
.	4d\	4ffn\
8e/L	2c#X\	2ee\
8f/	.	.
8g/	.	.
8a/J	.	.
=11	=11	=11
4a/	2B\	8dd\L
.	.	8cc\
4g/	.	8dd\
.	.	8b\J
8a/L	2A\	8cc#X\
8f/J	.	4dd\
4e/	.	.
.	.	8cc#X\
*v	*v	*
!!LO:LB:g=original
=12	=12
*clefF4	*
*	*^
2D/	8dd/L	2f\
.	8a/J	.
.	4bn/	.
4C#X/	4b/	2e\
4Cn/	4a/	.
=13	=13	=13
4BB#/	4a/	2d\
4BB-/	4g/	.
2AA/	8g/L	8c#X\
.	8f/J	4d\
.	4e/	.
.	.	8c#X\
=14	=14	=14
*^	*	*
8A/L	8D\L	8f/L	8d\L
8G/J	8E\J	8e/J	8c\J
4ryy	8F\L	4d/	8A\L
.	8D\J	.	8B\J
!	!LO:TX:a:t=P:problem: mixed beam	!	!
2ryy	8E\L	2e/	2c\
.	8AA/J	.	.
.	4A\	.	.
*v	*v	*	*
=15	=15	=15
4G#X\	2e/	2B\
4Gn\	.	.
4F#X\	4e/	2A\
4Fn\	4d/	.
=16	=16	=16
1E	2d/	1G
.	2c/	.
=17	=17	=17
*^	*	*
2F/	2D\	8d/L	2ryy
.	.	8A/	.
.	.	8B/	.
.	.	8c/J	.
!!LO:LB:g=original
2ryy	8A\L	2e/	2c\
.	8E\	.	.
.	8E\	.	.
.	8F\J	.	.
*	*	*v	*v
=18	=18	=18
2A#X/	2G\	8g/L
.	.	8d/
.	.	8d/
.	.	8e/J
2An/	2D\	8f/L
.	.	8a/
.	.	8g/
.	.	8f/J
*v	*v	*
=19	=19
*	*^
8A\L	4e/	4c#X\
8G\J	.	.
8F\L	4f/	2d\
!LO:TX:a:t=P:problem:16\right:global	!	!
16E\L	.	.
16F\JJ	.	.
8G\L	2e/	.
16F\L	.	.
16G\JJ	.	.
!LO:TX:a:t=P:problem: mixed beam	!	!
8A\L	.	4c#X\
8AA/J	.	.
*	*v	*v
*clefC4	*
=20	=20
*^	*
!	!	!LO:TX:a:t=P:problem: mixed beam
2A/	2D\	16f/LL
.	.	16e/
.	.	16d/
.	.	16cc#X\JJ
.	.	4dd\
2e/	4G\	4cc#X\
.	4A\	4ccn\
=21	=21	=21
2d/	4F#X\	4b#X/
.	4G\	4bn/
4.c/	8A\L	2a/
.	8F#\J	.
.	4D\	.
8d/	.	.
*v	*v	*
=22	=22
*	*^
8A\L	2a/	8c\L
8B\	.	8d\
8d\	.	8e\
8A\J	.	8f\J
!!LO:PB:g=original
8E/L	2g#X/	4B\
8F/	.	.
8G#X/	.	4c#X\
8E/J	.	.
=23	=23	=23
4D/	8f/L	8d\L
.	16g/L	16e\L
.	16a/JJ	16f\JJ
4G/	8d/L	8B\L
.	16e/L	16c\L
.	16f/JJ	16d\JJ
8E/L	4g/	4e\
16F/L	.	.
16G/JJ	.	.
4A/	8e/L	8c\L
.	16f/L	16d\L
.	16g/JJ	16e\JJ
=24	=24	=24
16r	2a/	2f\
16C/LL	.	.
16D/	.	.
16E/JJ	.	.
16F/LL	.	.
16G/	.	.
16A/	.	.
16B/JJ	.	.
8c\L	8g/L	8e\L
8A\J	8f/J	8c\J
4G\	8f/L	4B-
.	8e/J	.
*	*v	*v
=25	=25
*^	*
4F/	4ryy	8e/L
.	.	8d/
4G/	4E\	8d/
.	.	8c#X/J
*clefF4	*	*
2D/	2ryy	16r
.	.	16d/LL
.	.	16c#/
.	.	16B/JJ
.	.	8A/L
.	.	8B/J
!!LO:LB:g=original
=26	=26	=26
16r	4C#X\	2e/
16E/LL	.	.
16F/	.	.
16G/JJ	.	.
4A/	4Cn\	.
16r	4BB#X\	2d/
16D/LL	.	.
16E/	.	.
16F/JJ	.	.
4G/	4BBn\	.
=27	=27	=27
*	*	*^
8G/L	2AA\	8c#X/	2A\
8F/J	.	4d/	.
4E/	.	.	.
.	.	8c#X/	.
2ryy	16D\LL	4f/	2A\
.	16F\	.	.
.	16E\	.	.
.	16D\JJ	.	.
.	16C#X\LL	4e/	.
.	16E\	.	.
.	16D\	.	.
.	16C#\JJ	.	.
=28	=28	=28	=28
4A/	4D\	16f/LL	2ryy
.	.	16a/	.
.	.	16g/	.
.	.	16f/JJ	.
4c/	4E\	16g/LL	.
.	.	16a/	.
.	.	16b-X/	.
.	.	16a/JJ	.
2ryy	16F\LL	4a/	4f\
.	16A\	.	.
.	16G\	.	.
.	16F\JJ	.	.
!	!LO:TX:a:t=P:problem: mixed beam	!	!
.	16c\LL	4g/	4e\
.	16C/	.	.
.	16E/	.	.
.	16C/JJ	.	.
=29	=29	=29	=29
16D\LL	2ryy	2f/	2d\
!	!	!LO:TX:a:t=P:problem: nieczytelne źródło	!
16F\	.	.	.
16E\	.	.	.
16D\JJ	.	.	.
16C/LL	.	.	.
16BB/	.	.	.
16AA/	.	.	.
16GG/JJ	.	.	.
!!LO:LB:g=original
8A/L	2AA\	4e/	4c#X\
8G/J	.	.	.
!	!	!LO:TX:a:t=P:problem: nieczytelne źródło	!
8F/L	.	4d/	4d\
16E/L	.	.	.
!	!	!LO:TX:a:t=P:problem: nieczytelne źródło	!
16D/JJ	.	.	.
*v	*v	*	*
=30	=30	=30
1AA 1E	2d/	2.A\
.	2c#y/	.
.	.	4G\
=31	=31	=31
1DD 1AA 1D	1F#X 1A 1d	1ryy
*	*v	*v
==	==
*-	*-
!!!system-decoration: [(g1)]
!!!ENC: Anastazja Marusiak
!!!END: 2020-06-14
!!!ENC:Anna Matuszewska
!!!END:2020-12-08
